outline/svg/save-outline.svg

<svg xmlns="http://www.w3.org/2000/svg" viewBox="0 0 24 24"><g data-name="Layer 2"><path d="M20.12 8.71l-4.83-4.83A3 3 0 0 0 13.17 3H6a3 3 0 0 0-3 3v12a3 3 0 0 0 3 3h12a3 3 0 0 0 3-3v-7.17a3 3 0 0 0-.88-2.12zM10 19v-2h4v2zm9-1a1 1 0 0 1-1 1h-2v-3a1 1 0 0 0-1-1H9a1 1 0 0 0-1 1v3H6a1 1 0 0 1-1-1V6a1 1 0 0 1 1-1h2v5a1 1 0 0 0 1 1h4a1 1 0 0 0 0-2h-3V5h3.17a1.05 1.05 0 0 1 .71.29l4.83 4.83a1 1 0 0 1 .29.71z" data-name="save"/></g></svg>

<svg xmlns="http://www.w3.org/2000/svg" viewBox="0 0 24 24"><defs><style>.cls-1{fill:#fff;opacity:0;}.cls-2{fill:#231f20;}</style></defs><title>save</title><g id="Layer_2" data-name="Layer 2"><g id="save"><g id="save-2" data-name="save"><rect class="cls-1" width="24" height="24"/><path class="cls-2" d="M20.12,8.71,15.29,3.88A3,3,0,0,0,13.17,3H6A3,3,0,0,0,3,6V18a3,3,0,0,0,3,3H18a3,3,0,0,0,3-3V10.83A3,3,0,0,0,20.12,8.71ZM10,19V17h4v2Zm9-1a1,1,0,0,1-1,1H16V16a1,1,0,0,0-1-1H9a1,1,0,0,0-1,1v3H6a1,1,0,0,1-1-1V6A1,1,0,0,1,6,5H8v5a1,1,0,0,0,1,1h4a1,1,0,0,0,0-2H10V5h3.17a1.05,1.05,0,0,1,.71.29l4.83,4.83a1,1,0,0,1,.29.71Z"/></g></g></g></svg>
